!!!COM: Angelo Berardi
!!!OPR: Documenti Armonici
!!!ONB: Canon at the fifth above after a minim, CF below
!!!PPR: Giacomo Monti
!!!PDT: 1687
!!!PPP: Bologna
!!!ONB: Reprint ed., Bologna: Forni., 1970.  Bk II p. 95b.
!!!ONB: Transcribed from Angelo Berardi, Documenti Armonici, 1687,
**kern	**kern	**kern
*CF	*guida	*conseq
*k[]	*k[]	*k[]
*M4/4	*M4/4	*M4/4
=1-	=1-	=1-
1D	2d	2r
.	4d	2a
.	4d	.
=2	=2	=2
1F	4d	4a
.	8c	4a
.	8B	.
.	4A	4a
.	4B	8g
.	.	8f
=3	=3	=3
1C	4c	4e
.	4d	4f
.	2e	4g
.	.	4a
=4	=4	=4
1G	4r	2b
.	4g	.
.	4g	4r
.	[4g	4dd
=5	=5	=5
1D	4g]	4dd
.	8f	2dd
.	8e	.
.	4f	.
.	4d	8cc
.	.	8b
=6	=6	=6
1A	4f	4cc
.	4f	4a
.	[2e	4cc
.	.	4cc
=7	=7	=7
1G	4e]	2.b
.	8d	.
.	8c	.
.	2d	.
.	.	8a
.	.	8g
=8	=8	=8
1F	4r	2a
.	2d	.
.	.	4r
.	4d	[4a
=9	=9	=9
1E	2c	4a]
.	.	4a
.	4B	2g
.	4c	.
=10	=10	=10
[1D	[1d	[1f#
=11	=11	=11
1D]	1d]	1f#]
==	==	==
*-	*-	*-
!!!CDT: ~1636//-1694/4/9
!!!CNT: Italia
!!!ODT: <1687//
!!!YEP: David Huron and Denis Collins
!!!YEN: Canada
!!!AIN: vox; ?
!!!AST: polyphony
!!!RDT: 1995 July 3
!!!YED: 1995 August 31
!!!AFR: cantus firmus canon
!!!AMT: simple quadruple
!!!EEV: 1.0
